synths/sCEX.svg

<svg width="42" height="42" viewBox="0 0 42 42" fill="none" xmlns="http://www.w3.org/2000/svg">
<g clip-path="url(#clip0_7277_57802)">
<mask id="mask0_7277_57802" style="mask-type:alpha" maskUnits="userSpaceOnUse" x="0" y="0" width="42" height="42">
<circle cx="21" cy="21" r="21" fill="url(#paint0_linear_7277_57802)"/>
</mask>
<g mask="url(#mask0_7277_57802)">
<circle cx="21" cy="21" r="21" fill="#34EDB3"/>
<circle cx="21" cy="21" r="18.2" fill="white"/>
</g>
<circle cx="21" cy="21" r="16.1" fill="#06061B"/>
<circle cx="21" cy="21" r="16.1" fill="#06061B"/>
<path d="M19.38 12.885L21.5741 10.6909L23.7693 12.8861L25.0459 11.6095L21.5741 8.13757L18.1033 11.6083L19.38 12.885ZM15.925 13.7866L17.2017 12.5099L18.4784 13.7866L17.2017 15.0633L15.925 13.7866ZM19.38 14.6882L21.5741 16.8822L23.7693 14.687L25.0459 15.9631L21.5741 19.4356L18.1033 15.9648L18.1016 15.9631L19.38 14.6882ZM24.6697 13.7866L25.9464 12.5099L27.2231 13.7866L25.9464 15.0633L24.6697 13.7866ZM22.8688 13.7855H22.8699V13.7866L21.5741 15.0825L20.2799 13.7888L20.2776 13.7866L20.2799 13.7849L20.5064 13.5578L20.6166 13.4476L21.5741 12.4907L22.8694 13.786L22.8688 13.7855Z" fill="#F3BA2F"/>
<rect x="12.4474" y="21.4375" width="7.32652" height="2.46788" fill="#02A6C2"/>
<rect x="12.4474" y="24.6765" width="5.24425" height="2.46788" fill="#5FCADE"/>
<rect x="12.4474" y="27.9158" width="2.46788" height="2.46788" fill="#ABEBF4"/>
<rect x="9.36255" y="24.6765" width="2.46788" height="2.46788" fill="#5FCADE"/>
<path d="M25.311 22.7267C26.3342 22.0682 27.4649 21.5776 28.6455 21.2707C29.5637 21.0319 31.6415 20.7328 32.544 20.9506C32.1557 21.4386 31.7307 21.9554 31.3241 22.4276C30.3849 23.4324 29.4037 24.4084 28.2966 25.2269C26.712 26.4258 24.8808 27.4044 22.8817 27.6353C22.845 26.8744 22.9053 26.1005 23.1572 25.3764C23.3749 24.7206 23.7396 24.1145 24.2249 23.6239C24.5424 23.2776 24.907 22.9681 25.311 22.7267Z" fill="#709B30"/>
<path d="M32.5572 20.9852C33.5069 25.6997 30.238 32.0301 24.4663 30.0678C23.9888 29.9051 23.5848 29.5562 23.249 29.1758C25.3137 28.8636 27.0374 27.7932 28.5616 26.4211C30.2747 24.8785 31.3819 22.9424 32.5572 20.9852Z" fill="#98C455"/>
</g>
<defs>
<linearGradient id="paint0_linear_7277_57802" x1="21" y1="0" x2="21" y2="61.4091" gradientUnits="userSpaceOnUse">
<stop stop-color="#08021E"/>
<stop offset="1" stop-color="#1F0777"/>
</linearGradient>
<clipPath id="clip0_7277_57802">
<rect width="42" height="42" fill="white"/>
</clipPath>
</defs>
</svg>

<svg xmlns="http://www.w3.org/2000/svg" width="42" height="42" fill="none"><g clip-path="url(#a)"><mask id="c" width="42" height="42" x="0" y="0" maskUnits="userSpaceOnUse" style="mask-type:alpha"><circle cx="21" cy="21" r="21" fill="url(#b)"/></mask><g mask="url(#c)"><circle cx="21" cy="21" r="21" fill="#34EDB3"/><circle cx="21" cy="21" r="18.2" fill="#fff"/></g><circle cx="21" cy="21" r="16.1" fill="#06061B"/><circle cx="21" cy="21" r="16.1" fill="#06061B"/><path fill="#F3BA2F" d="m19.38 12.885 2.194-2.194 2.195 2.195 1.277-1.276-3.472-3.472-3.47 3.47 1.276 1.277Zm-3.455.902 1.277-1.277 1.276 1.277-1.276 1.276-1.277-1.276Zm3.455.901 2.194 2.194 2.195-2.195 1.277 1.276-3.472 3.473-3.47-3.471-.002-.002 1.278-1.275Zm5.29-.901 1.276-1.277 1.277 1.277-1.277 1.276-1.276-1.276Zm-1.801-.002v.002l-1.295 1.295-1.294-1.293-.002-.002.002-.002.226-.227.11-.11.958-.957 1.295 1.295Z"/><path fill="#02A6C2" d="M12.447 21.438h7.327v2.468h-7.327z"/><path fill="#5FCADE" d="M12.447 24.677h5.244v2.468h-5.244z"/><path fill="#ABEBF4" d="M12.447 27.916h2.468v2.468h-2.468z"/><path fill="#5FCADE" d="M9.363 24.677h2.468v2.468H9.363z"/><path fill="#709B30" d="M25.311 22.727a11.528 11.528 0 0 1 3.334-1.456c.919-.24 2.997-.538 3.899-.32a50.611 50.611 0 0 1-1.22 1.477c-.94 1.004-1.92 1.98-3.027 2.799-1.585 1.199-3.416 2.177-5.415 2.408-.037-.76.023-1.535.275-2.259a4.523 4.523 0 0 1 1.068-1.752 4.89 4.89 0 0 1 1.086-.897Z"/><path fill="#98C455" d="M32.557 20.985c.95 4.715-2.319 11.045-8.09 9.083-.478-.163-.882-.512-1.218-.892 2.065-.312 3.788-1.383 5.313-2.755 1.713-1.543 2.82-3.479 3.995-5.436Z"/></g><defs><linearGradient id="b" x1="21" x2="21" y1="0" y2="61.409" gradientUnits="userSpaceOnUse"><stop stop-color="#08021E"/><stop offset="1" stop-color="#1F0777"/></linearGradient><clipPath id="a"><path fill="#fff" d="M0 0h42v42H0z"/></clipPath></defs></svg>
